X: 174
T:Touch and Take
M:6/8
L:1/8
Q:140
S:Manuscript
A:English
K:A
A>Bc d2 A| d2 e f>ed| e>fg a2 g|f3 e3| c2 A F2 B| G2 E e2 c| d>ef e>dc| B3 A2 z:|

